X:1
T:Mary Ann
M:4/4
L:1/4
K:C
 G3/2 E/2 c A| G G/2F/2 E2| G3/2 E/2 G e| d3 G/2G/2| e e/2e/2 d/2d/2 d/2B/2|\
 c c E3/2 D/2| C C D E| G A/2c/2 D E/2D/2| C3 z|
